X: 21042
M: 2/4
L: 1/16
K: F
V: 1 name="2"
c2f2 d2f2 | cdcB A2c2 | B2B2 A2A2 | G4 z2AB |\
c2f2 d2f2 | cdcB G2c2 | d2g2 fede | f4 z2 H|]
|: c2 |\
f2z2 e2z2 | f6 d2 | c2B2A2G2 | A2G2 z2c2 |\
fgaf efge | f2ag fedc | BAGF E2c2 | "^D.C."F6 :|


